X:1
T:Title
%%score { ( 1 3 ) | ( 2 4 ) }
L:1/8
M:4/4
K:F
V:1 treble nm="Grand Piano"
V:3 treble 
V:2 bass 
V:4 bass 
V:1
 z4 z2[Q:1/4=100] C>C | F2 A2 c2 d2 | d4 c2 [B,EA]>[B,EG] | z2 G2 z4 |[M:3/4] F6 |[M:1/4] C>C | %6
[M:4/4] F2 A2 [Ac]2 [_Ad]2 | [Gd]4 [Gc]2 c>d | e2 E>F [CEG]2 [=B,FG]2 |[M:3/4] [CEc]6 | %10
[M:1/4] C>C |[M:4/4] [CGB]2 [CGB]2 A2 A2 | G4 F2 F>F | [Bd]2 [Ac]2 [GB]2 z D |[M:3/4] G6 | %15
[M:1/4] c>c |[M:4/4] d2 d2 e2 d2 | c4 A2 F>G | A2 A2 A2 d2 | c4- [Gc]4 | c2 c2 c>A G>F | %21
 F4 E2 C>C | [CF]2 F>G A2 [Fd]2 | [EG]6 c>c | f3 e d2 G>G | c3 A F2 [A,_EF]>[A,EF] | %26
 [B,DF]2 [B,DB]2 [B,FG]2 [B,EG]2 |[M:3/4] [A,F]6 |] %28
V:2
 z4 z2 C,>C, | F,2 A,2 C2 D2 | D4 C2 C,>C, | D,2 [A,,F,]2 [C,A,]2 [C,B,C]2 |[M:3/4] [F,A,C]6 | %5
[M:1/4] C,>C, |[M:4/4] F,2 [F,CF]2 [F,C]2 [F,=B,]2 | [E,C]4 [E,C]2[K:treble] [A,CA]>[=B,D=B] | %8
 [CEc]2 C>D[K:bass] G,2 G,2 |[M:3/4] C,6 |[M:1/4] C,>C, | %11
[M:4/4] E,2 E,2[K:treble] [F,CF]2 [A,CF]2 | [B,CE]4 [A,C]2 [A,C]>[K:bass][A,C] | %13
 [E,G,]2 [F,A,]2 [G,B,]2 [A,C]B, |[M:3/4][K:treble] [CE]6 |[M:1/4] [CEG]>[CEG] | %16
[M:4/4] [B,DG]2 [B,DG]2 [B,CG]2 [B,CE]2 | [A,CF]4[K:bass] [F,CF]2 [B,D]>[B,D] | %18
 [A,^CE]2 [G,CE]2 [F,D]2 [G,=B,F]2 | z4 B,4 | [F,A,F]2 [F,A,F]2 [F,A,F]>[F,CF] [F,B,C]>[F,A,C] | %21
 [C,A,C]4 [C,G,C]2 [B,,E,]>[B,,E,] | [A,,F,]2 [A,C]>[G,B,E] [F,CF]2 [=B,,G,]2 | %23
 [C,C]6[K:treble] [B,CE]>[B,CE] | [A,CF]3 [A,CF] [B,F]2 [B,CE]>[B,CE] | %25
 [A,CF]3 [A,CF][K:bass] [D,A,]2 C,>C, | B,,2 z z/ A/ C,2 C,2 |[M:3/4] F,6 |] %28
V:3
 x8 | x8 | x8 | [A,F]2 C->[CA] C2 G2 |[M:3/4] x6 |[M:1/4] x2 |[M:4/4] x8 | x8 | x8 |[M:3/4] x6 | %10
[M:1/4] x2 |[M:4/4] x8 | x8 | z4 z2 [FA]2 |[M:3/4] x6 |[M:1/4] x2 |[M:4/4] x8 | x8 | x8 | %19
 [CE]4 z4 | x8 | x8 | x8 | x8 | x8 | x8 | x8 |[M:3/4] x6 |] %28
V:4
 x8 | x8 | x8 | x8 |[M:3/4] x6 |[M:1/4] x2 |[M:4/4] x8 | x6[K:treble] x2 | z2 G,2[K:bass] z4 | %9
[M:3/4] x6 |[M:1/4] x2 |[M:4/4] x4[K:treble] x4 | x15/2[K:bass] x/ | x8 |[M:3/4][K:treble] x6 | %15
[M:1/4] x2 |[M:4/4] x8 | x4[K:bass] x4 | x8 | C,8 | x8 | x8 | x8 | x6[K:treble] x2 | x8 | %25
 x4[K:bass] x4 | z2 G,,2 z4 |[M:3/4] x6 |] %28

